X: 45
T:Rondeau
M:C
L:1/4
O:France
K:C
EA|A>GAB|G>ABG|A2F2|E2:|
|:EA|A>GAB|c>Bcd|B2G2|A2:|
W:
W: From "Falaleiro" http://home.t-online.de/home/pheld/homepage.htm

